img/instagram.svg

<svg width="24" height="24" viewBox="0 0 24 24" fill="none" xmlns="http://www.w3.org/2000/svg">
<g clip-path="url(#clip0)">
<path d="M1.49996 1.63329C-0.386045 3.59229 -4.48897e-05 5.67329 -4.48897e-05 11.9953C-4.48897e-05 17.2453 -0.916045 22.5083 3.87795 23.7473C5.37495 24.1323 18.639 24.1323 20.134 23.7453C22.13 23.2303 23.754 21.6113 23.976 18.7883C24.007 18.3943 24.007 5.60329 23.975 5.20129C23.739 2.19429 21.888 0.461291 19.449 0.110291C18.89 0.0292905 18.778 0.00529053 15.91 0.000290532C5.73695 0.00529053 3.50695 -0.44771 1.49996 1.63329Z" fill="url(#paint0_linear)"/>
<path d="M11.9981 3.13892C8.36706 3.13892 4.91906 2.81592 3.60206 6.19592C3.05806 7.59192 3.13706 9.40492 3.13706 12.0009C3.13706 14.2789 3.06406 16.4199 3.60206 17.8049C4.91606 21.1869 8.39206 20.8629 11.9961 20.8629C15.4731 20.8629 19.0581 21.2249 20.3911 17.8049C20.9361 16.3949 20.8561 14.6089 20.8561 12.0009C20.8561 8.53892 21.0471 6.30392 19.3681 4.62592C17.6681 2.92592 15.3691 3.13892 11.9941 3.13892H11.9981ZM11.2041 4.73592C18.7781 4.72392 19.7421 3.88192 19.2101 15.5789C19.0211 19.7159 15.8711 19.2619 11.9991 19.2619C4.93906 19.2619 4.73606 19.0599 4.73606 11.9969C4.73606 4.85192 5.29606 4.73992 11.2041 4.73392V4.73592ZM16.7281 6.20692C16.1411 6.20692 15.6651 6.68292 15.6651 7.26992C15.6651 7.85692 16.1411 8.33292 16.7281 8.33292C17.3151 8.33292 17.7911 7.85692 17.7911 7.26992C17.7911 6.68292 17.3151 6.20692 16.7281 6.20692ZM11.9981 7.44992C9.48506 7.44992 7.44806 9.48792 7.44806 12.0009C7.44806 14.5139 9.48506 16.5509 11.9981 16.5509C14.5111 16.5509 16.5471 14.5139 16.5471 12.0009C16.5471 9.48792 14.5111 7.44992 11.9981 7.44992ZM11.9981 9.04692C15.9031 9.04692 15.9081 14.9549 11.9981 14.9549C8.09406 14.9549 8.08806 9.04692 11.9981 9.04692Z" fill="white"/>
</g>
<defs>
<linearGradient id="paint0_linear" x1="1.54598" y1="22.4674" x2="23.8514" y2="3.16227" gradientUnits="userSpaceOnUse">
<stop stop-color="#FFDD55"/>
<stop offset="0.5" stop-color="#FF543E"/>
<stop offset="1" stop-color="#C837AB"/>
</linearGradient>
<clipPath id="clip0">
<rect width="24" height="24" fill="white"/>
</clipPath>
</defs>
</svg>

<svg width="24" height="24" viewBox="0 0 24 24" fill="none" xmlns="http://www.w3.org/2000/svg"><g clip-path="url(#clip0)"><path d="M1.5 1.633C-.386 3.593 0 5.673 0 11.995c0 5.25-.916 10.513 3.878 11.752 1.497.385 14.761.385 16.256-.002 1.996-.515 3.62-2.134 3.842-4.957.031-.394.031-13.185-.001-13.587-.236-3.007-2.087-4.74-4.526-5.09C18.89.028 18.778.004 15.91 0 5.737.004 3.507-.449 1.5 1.632z" fill="url(#paint0_linear)"/><path d="M11.998 3.139c-3.63 0-7.079-.323-8.396 3.057-.544 1.396-.465 3.209-.465 5.805 0 2.278-.073 4.419.465 5.804 1.314 3.382 4.79 3.058 8.394 3.058 3.477 0 7.062.362 8.395-3.058.545-1.41.465-3.196.465-5.804 0-3.462.191-5.697-1.488-7.375-1.7-1.7-3.999-1.487-7.374-1.487h.004zm-.794 1.597c7.574-.012 8.538-.854 8.006 10.843-.189 4.137-3.339 3.683-7.21 3.683-7.06 0-7.264-.202-7.264-7.265 0-7.145.56-7.257 6.468-7.263v.002zm5.524 1.47a1.063 1.063 0 100 2.127 1.063 1.063 0 000-2.126zm-4.73 1.244a4.55 4.55 0 10.002 9.1 4.55 4.55 0 000-9.101zm0 1.597c3.905 0 3.91 5.908 0 5.908-3.904 0-3.91-5.908 0-5.908z" fill="#fff"/></g><defs><linearGradient id="paint0_linear" x1="1.546" y1="22.467" x2="23.851" y2="3.162" gradientUnits="userSpaceOnUse"><stop stop-color="#FD5"/><stop offset=".5" stop-color="#FF543E"/><stop offset="1" stop-color="#C837AB"/></linearGradient><clipPath id="clip0"><path fill="#fff" d="M0 0h24v24H0z"/></clipPath></defs></svg>
